build/finance/CardTPSolid.svg

<svg xmlns="http://www.w3.org/2000/svg" fill="none" viewBox="0 0 24 24" focusable="false"><path d="M0 0H24V24H0z"/><path fill="#74767B" fill-rule="evenodd" d="M2.99998 8C2.99998 6.34315 4.34313 5 5.99998 5L18 5C19.6568 5 21 6.34315 21 8L21 8.27051L2.99998 8.27051L2.99998 8ZM21 9.57051L2.99998 9.57051L2.99998 16C2.99998 17.6569 4.34313 19 5.99999 19L18 19C19.6568 19 21 17.6569 21 16L21 9.57051ZM6.49004 11.8363C6.49004 11.4773 6.78105 11.1863 7.14004 11.1863L11.14 11.1863C11.499 11.1863 11.79 11.4773 11.79 11.8363C11.79 12.1953 11.499 12.4863 11.14 12.4863L9.79004 12.4863L9.79004 16.7462C9.79004 17.1052 9.49902 17.3962 9.14004 17.3962C8.78105 17.3962 8.49004 17.1052 8.49004 16.7462L8.49004 12.4863L7.14004 12.4863C6.78105 12.4863 6.49004 12.1953 6.49004 11.8363ZM15.2191 11.1863L13.44 11.1863C13.081 11.1863 12.79 11.4773 12.79 11.8363L12.79 16.7461C12.79 17.1051 13.081 17.3961 13.44 17.3961C13.799 17.3961 14.09 17.1051 14.09 16.7461L14.09 15.7679L15.2191 15.7679C16.4843 15.7679 17.5099 14.7423 17.5099 13.4771C17.5099 12.2119 16.4843 11.1863 15.2191 11.1863ZM14.09 12.4863L14.09 14.4679L15.2191 14.4679C15.7663 14.4679 16.2099 14.0243 16.2099 13.4771C16.2099 12.9299 15.7663 12.4863 15.2191 12.4863L14.09 12.4863Z"/></svg>

<svg xmlns="http://www.w3.org/2000/svg" fill="none" viewBox="0 0 24 24" focusable="false"><path fill="#74767B" fill-rule="evenodd" d="M2.99 8c0-1.66 1.35-3 3-3H18c1.65 0 3 1.34 3 3v.27H2.99zM21 9.57H2.99V16c0 1.65 1.35 3 3 3H18c1.65 0 3-1.35 3-3zM6.49 11.83c0-.36.29-.65.65-.65h4c.35 0 .65.29.65.65s-.3.65-.65.65H9.79v4.26c0 .36-.3.65-.65.65-.36 0-.65-.29-.65-.65v-4.26H7.14c-.36 0-.65-.29-.65-.65m8.72-.65h-1.77c-.36 0-.65.29-.65.65v4.91c0 .36.29.65.65.65.35 0 .65-.29.65-.65v-.98h1.12c1.27 0 2.29-1.02 2.29-2.29a2.29 2.29 0 0 0-2.29-2.29m-1.12 1.3v1.98h1.12c.55 0 .99-.44.99-.99s-.44-.99-.99-.99z"/></svg>
